X: 23412
T: Les Doigts De Carmen
R: reel
M: 4/4
K: Edorian
E2GA BGAB|EGBd c2A2|
cBce BABd|ABAG F2GF|
E2GA BGAB|EGBd c2A2|
cBce dcdg|fefd e4:|
|:gagf efgf|gagf defe|
fafe defd|efed B2AB|
gagf efgf|gagf defe|
fafe defd|efed e4:|

